X:35
T:Royal Quickstep
R:Jig
O:England
M:6/8
A:Lancashire
B:Winder
K:G
B |\
d2g B2c | d2B G2B | ABA ABc | d2B G2B | \
d2g B2c | d2B G2B | AcB AGF | G3 G2 :|*
|:g|\
fef def | gfe def | fef def | g2z z2g |\
fef def | gfe def | gag fef | g3 g2 :|**
